X: 1
T:Bourr\'ee d'Aurore Sand mineure
G:Kazimodal
R:Bourr\'ee 2 temps
C:Traditionnel, similar to Lark camp 2015/04/02 v10 #15
Z:Ronan Keryell, arrangement http://kazimodal.trad.org
Q:1/4=145
P:AB4
M:4/4
K:Dm
P:A
A \
P:B
%%MIDI gchord c2ffccf2
%%MIDI chordprog 0
%%MIDI chordvol 80
%%MIDI bassprog 0
%%MIDI bassvol 127
%%MIDI program 68
|: "Dm"D>E "C"FG "F"A3 A | "Bb"Ad "A"^cd "Dm"A4 | "Gm"B>A GE "Bb"F>E DF \
|1 "C"E>D EF "Am"E3 A :|2 "Am"E>D EF "Dm"D4 ||
| "Dm"A>G FG "Em"A>G FG | "F"A>G AB "Gm"AG FG | "Am"A>G FG "Bb"AG AB |\
   "C"AG "Bb"FE "Gm"D4 |
| "Dm"A>G FG "C"A>G FG | "Bb"A>G AB "Gm"AG FG | "Am"A>G FG "Bb"AG AB |\
 "C"AG FE "Dm"D3 A ||

